img/logo.svg

<svg width="36" height="37" viewBox="0 0 36 37" fill="none" xmlns="http://www.w3.org/2000/svg">
<path fill-rule="evenodd" clip-rule="evenodd" d="M0.696501 13.5035C0 15.0545 0 16.8092 0 20.3187V21.1271C0 28.6097 0 32.3509 2.32453 34.6755C4.64905 37 8.39032 37 15.8729 37H19.8411C27.3236 37 31.0649 37 33.3894 34.6755C35.7139 32.3509 35.7139 28.6097 35.7139 21.1272V20.3187C35.7139 16.8092 35.7139 15.0545 35.0174 13.5035C34.3209 11.9525 33.0094 10.7867 30.3864 8.45514L28.4023 6.69149C23.3837 2.2305 20.8744 0 17.857 0C14.8395 0 12.3302 2.2305 7.31161 6.69149L5.32751 8.45514C2.7045 10.7867 1.393 11.9525 0.696501 13.5035ZM7.81173 16.7831C7.39551 17.7299 7.39551 18.7961 7.39551 20.9283V21.154C7.39551 25.7955 7.39551 28.1162 8.83744 29.5582C10.2794 31.0001 12.6001 31.0001 17.2416 31.0001H18.4724C23.1139 31.0001 25.4347 31.0001 26.8766 29.5582C28.3186 28.1162 28.3186 25.7955 28.3186 21.154V20.9283C28.3186 18.7961 28.3186 17.7299 27.9024 16.7831C27.4861 15.8362 26.7006 15.1154 25.1296 13.6737L24.5142 13.109C21.3538 10.2089 19.7736 8.75879 17.857 8.75879C15.9405 8.75879 14.3603 10.2089 11.1999 13.109L10.5845 13.6737C9.01347 15.1154 8.22795 15.8362 7.81173 16.7831Z" fill="#191A23"/>
<mask id="mask0_6383_2800" style="mask-type:alpha" maskUnits="userSpaceOnUse" x="0" y="0" width="36" height="37">
<path fill-rule="evenodd" clip-rule="evenodd" d="M0.696501 13.5035C0 15.0545 0 16.8092 0 20.3187V21.1271C0 28.6097 0 32.3509 2.32453 34.6755C4.64905 37 8.39032 37 15.8729 37H19.8411C27.3236 37 31.0649 37 33.3894 34.6755C35.7139 32.3509 35.7139 28.6097 35.7139 21.1272V20.3187C35.7139 16.8092 35.7139 15.0545 35.0174 13.5035C34.3209 11.9525 33.0094 10.7867 30.3864 8.45514L28.4023 6.69149C23.3837 2.2305 20.8744 0 17.857 0C14.8395 0 12.3302 2.2305 7.31161 6.69149L5.32751 8.45514C2.7045 10.7867 1.393 11.9525 0.696501 13.5035ZM7.81173 16.7831C7.39551 17.7299 7.39551 18.7961 7.39551 20.9283V21.154C7.39551 25.7955 7.39551 28.1162 8.83744 29.5582C10.2794 31.0001 12.6001 31.0001 17.2416 31.0001H18.4724C23.1139 31.0001 25.4347 31.0001 26.8766 29.5582C28.3186 28.1162 28.3186 25.7955 28.3186 21.154V20.9283C28.3186 18.7961 28.3186 17.7299 27.9024 16.7831C27.4861 15.8362 26.7006 15.1154 25.1296 13.6737L24.5142 13.109C21.3538 10.2089 19.7736 8.75879 17.857 8.75879C15.9405 8.75879 14.3603 10.2089 11.1999 13.109L10.5845 13.6737C9.01347 15.1154 8.22795 15.8362 7.81173 16.7831Z" fill="#B592FF"/>
</mask>
<g mask="url(#mask0_6383_2800)">
<circle cx="27.5" cy="9.5" r="16.5" fill="#B592FF"/>
<path d="M12.5653 19.8047C14.4099 19.8047 15.3322 19.8047 16.0933 19.9874C18.5116 20.568 20.3998 22.4562 20.9803 24.8744C21.1631 25.6356 21.1631 26.5579 21.1631 28.4025C21.1631 30.2471 21.1631 31.1694 20.9803 31.9305C20.3998 34.3488 18.5116 36.237 16.0933 36.8176C15.3322 37.0003 14.4099 37.0003 12.5653 37.0003L10.5812 37.0003C6.87716 37.0003 5.02515 37.0003 3.61041 36.2794C2.36596 35.6454 1.3542 34.6336 0.720119 33.3892C-0.000731046 31.9744 -0.000730966 30.1224 -0.000730804 26.4184L-0.000730515 19.8047L12.5653 19.8047Z" fill="#FDA5D6"/>
</g>
</svg>

<svg xmlns="http://www.w3.org/2000/svg" width="36" height="37" fill="none"><path fill="#191A23" fill-rule="evenodd" d="M.697 13.504C0 15.054 0 16.809 0 20.319v.808c0 7.483 0 11.224 2.325 13.549C4.649 37 8.39 37 15.873 37h3.968c7.483 0 11.224 0 13.548-2.325 2.325-2.324 2.325-6.065 2.325-13.548v-.808c0-3.51 0-5.264-.697-6.815-.696-1.551-2.008-2.717-4.63-5.049l-1.985-1.764C23.384 2.231 20.874 0 17.857 0S12.33 2.23 7.312 6.691L5.328 8.455c-2.624 2.332-3.935 3.498-4.631 5.049m7.115 3.28c-.416.946-.416 2.012-.416 4.144v.226c0 4.642 0 6.962 1.441 8.404S12.6 31 17.242 31h1.23c4.642 0 6.963 0 8.405-1.442s1.442-3.762 1.442-8.404v-.226c0-2.132 0-3.198-.417-4.145-.416-.947-1.201-1.668-2.772-3.11l-.616-.564c-3.16-2.9-4.74-4.35-6.657-4.35s-3.497 1.45-6.657 4.35l-.615.565c-1.572 1.441-2.357 2.162-2.773 3.11" clip-rule="evenodd"/><mask id="a" width="36" height="37" x="0" y="0" maskUnits="userSpaceOnUse" style="mask-type:alpha"><path fill="#B592FF" fill-rule="evenodd" d="M.697 13.504C0 15.054 0 16.809 0 20.319v.808c0 7.483 0 11.224 2.325 13.549C4.649 37 8.39 37 15.873 37h3.968c7.483 0 11.224 0 13.548-2.325 2.325-2.324 2.325-6.065 2.325-13.548v-.808c0-3.51 0-5.264-.697-6.815-.696-1.551-2.008-2.717-4.63-5.049l-1.985-1.764C23.384 2.231 20.874 0 17.857 0S12.33 2.23 7.312 6.691L5.328 8.455c-2.624 2.332-3.935 3.498-4.631 5.049m7.115 3.28c-.416.946-.416 2.012-.416 4.144v.226c0 4.642 0 6.962 1.441 8.404S12.6 31 17.242 31h1.23c4.642 0 6.963 0 8.405-1.442s1.442-3.762 1.442-8.404v-.226c0-2.132 0-3.198-.417-4.145-.416-.947-1.201-1.668-2.772-3.11l-.616-.564c-3.16-2.9-4.74-4.35-6.657-4.35s-3.497 1.45-6.657 4.35l-.615.565c-1.572 1.441-2.357 2.162-2.773 3.11" clip-rule="evenodd"/></mask><g mask="url(#a)"><circle cx="27.5" cy="9.5" r="16.5" fill="#B592FF"/><path fill="#FDA5D6" d="M12.565 19.805c1.845 0 2.767 0 3.528.182a6.61 6.61 0 0 1 4.887 4.887c.183.762.183 1.684.183 3.529s0 2.766-.183 3.528a6.61 6.61 0 0 1-4.887 4.887c-.76.182-1.683.182-3.528.182h-1.984c-3.704 0-5.556 0-6.97-.72a6.6 6.6 0 0 1-2.89-2.89c-.722-1.416-.722-3.268-.722-6.972v-6.613z"/></g></svg>
